data/img/to-tab.svg

<?xml version="1.0" encoding="UTF-8" standalone="no"?>
<svg width="18px" height="18px" viewBox="0 0 18 18" version="1.1" xmlns="http://www.w3.org/2000/svg" xmlns:xlink="http://www.w3.org/1999/xlink">
    <!-- Generator: Sketch 3.8.2 (29753) - http://www.bohemiancoding.com/sketch -->
    <title>to-tab</title>
    <desc>Created with Sketch.</desc>
    <defs></defs>
    <g id="Page-1" stroke="none" stroke-width="1" fill="none" fill-rule="evenodd">
        <g id="to-tab" fill="#FFFFFF">
            <path d="M4,4 L4,9 L2,9 L2,3.00292933 C2,2.44902676 2.44892021,2 3.00748397,2 L15.992516,2 C16.5489341,2 17,2.44748943 17,2.99850233 L17,14.0014977 C17,14.5529553 16.5562834,15 16.0001925,15 L12,15 L12,13 L15,13 L15,4 L4,4 Z" id="Combined-Shape"></path>
            <path d="M1,10.990778 C1,10.4435864 1.4556644,10 1.99539757,10 L10.0046024,10 C10.5543453,10 11,10.4509752 11,10.990778 L11,15.009222 C11,15.5564136 10.5443356,16 10.0046024,16 L1.99539757,16 C1.44565467,16 1,15.5490248 1,15.009222 L1,10.990778 Z" id="Rectangle-7"></path>
            <rect id="Rectangle-9-Copy" transform="translate(12.500000, 9.500000) rotate(-450.000000) translate(-12.500000, -9.500000) " x="11" y="9" width="3" height="1"></rect>
            <rect id="Rectangle-9-Copy-2" transform="translate(11.500000, 8.500000) rotate(-360.000000) translate(-11.500000, -8.500000) " x="10" y="8" width="3" height="1"></rect>
        </g>
    </g>
</svg>

<svg width="18" height="18" viewBox="0 0 18 18" xmlns="http://www.w3.org/2000/svg"><title>to-tab</title><g fill="#FFF" fill-rule="evenodd"><path d="M4 4v5H2V3.003C2 2.449 2.449 2 3.007 2h12.986c.556 0 1.007.447 1.007.999V14a.997.997 0 0 1-1 1h-4v-2h3V4H4z"/><path d="M1 10.99a1 1 0 0 1 .995-.99h8.01c.55 0 .995.451.995.99v4.02a1 1 0 0 1-.995.99h-8.01A.998.998 0 0 1 1 15.01v-4.02zM12 11V8h1v3z"/><path d="M10 8h3v1h-3z"/></g></svg>
